X: 1
T:The Men of the West  "works great as a Slow Air"
M:6/8
L:1/8
Q:80
C:Thomas Davis
S:March 6/8
K:HP
|: e|
{g}A2{GdGe}A{gcd}c3/2B/2{d}A|
{gef}e3{gfg}f3/2g/2a|
{ef}e3/2c/2{d}A{g}A3/2B/2c|  !
{g}B3{GdGe}B3/2c/2e|
{g}A2{GdGe}A{gcd}c3/2B/2{d}A|
{gef}e3{gfg}f3/2g/2a|  !
{ef}e3/2c/2{d}A{g}B3/2{d}c/2{e}B|
{g}A3{GAG}A2:| |:
c/4d3/4|  !
{g}e2{GdG}e{g}e3/2f/2g|
{ag}a3{f}g2f|
{ef}e3/2c/2{d}A{g}A3/2B/2c|  !
{g}B3{GdGe}B3/2|1 c/2d|1
{g}e2{GdG}e{g}e3/2f/2g|
{ag}a3{f}g2f|  !
{ef}e3/2c/2{d}A{g}B3/2{d}c/2{e}B|
{g}A3{GAG}A2:|2
c/2e3/2|  !
{g}A2{GdGe}A{gcd}c3/2B/2{d}A|
{gef}e3{gfg}f3/2g/2a|
{ef}e3/2c/2{d}A{g}B3/2{d}c/2{e}B|  !
{g}A3{GAG}A2|]
